app/themes/fondfolio/assets/svg/confetti.svg

<?xml version="1.0" encoding="UTF-8"?>
<svg width="1135px" height="620px" viewBox="0 0 1135 620" version="1.1" xmlns="http://www.w3.org/2000/svg" xmlns:xlink="http://www.w3.org/1999/xlink">
    <!-- Generator: Sketch 43.2 (39069) - http://www.bohemiancoding.com/sketch -->
    <title>Artboard Copy</title>
    <desc>Created with Sketch.</desc>
    <defs></defs>
    <g id="Dashboard" stroke="none" stroke-width="1" fill="none" fill-rule="evenodd" fill-opacity="0.3">
        <g id="Artboard-Copy" fill="#008489">
            <g id="Group-21">
                <path d="M852.500071,4.5 C853.342214,4.96542857 854.035214,5.65778571 854.5,6.49992857 C854.964786,5.65842857 855.657786,4.96542857 856.499929,4.5 C855.658429,4.03521429 854.965429,3.34221429 854.5,2.50071429 C854.035214,3.34157143 853.342214,4.03457143 852.500071,4.5 M854.5,9 C854.155429,9 853.866143,8.75057143 853.812143,8.40728571 C853.553714,6.73842857 852.260929,5.44628571 850.595286,5.1885 L850.592071,5.1885 C850.249429,5.13385714 850,4.84457143 850,4.5 C850,4.15542857 850.249429,3.86614286 850.592071,3.8115 C852.260929,3.55371429 853.553714,2.26157143 853.8115,0.595285714 C853.866143,0.249428571 854.155429,0 854.5,0 C854.844571,0 855.1345,0.249428571 855.1885,0.592714286 C855.446929,2.26157143 856.739714,3.55371429 858.405357,3.8115 C858.751214,3.86614286 859,4.15542857 859,4.5 C859,4.84457143 858.751214,5.13385714 858.407929,5.1885 C856.739714,5.44628571 855.446929,6.73842857 855.189143,8.40471429 C855.1345,8.75057143 854.844571,9 854.5,9" id="Shape" fill-rule="nonzero"></path>
                <path d="M890.627686,155.607669 L885.534719,157.918816 C885.076729,158.126752 884.873841,158.666607 885.081479,159.124889 C885.233946,159.461261 885.565573,159.66 885.912029,159.66 C886.037797,159.66 886.16594,159.633598 886.288148,159.578129 L891.348706,157.281702 C892.78444,157.821375 896.063033,159.025517 896.941112,159.10531 C896.968996,159.107977 896.996879,159.109167 897.024763,159.109167 C897.490462,159.109167 897.887941,158.753514 897.930653,158.280695 C897.976336,157.779398 897.607331,157.336242 897.106039,157.290565 C896.684237,157.252002 894.571088,156.531802 892.548705,155.784011 L894.131493,152.2877 C894.339132,151.829419 894.135648,151.289266 893.677658,151.081925 C893.218483,150.873101 892.679223,151.077478 892.471584,151.536057 L890.627686,155.607669 Z" id="Path"></path>
                <path d="M691.279841,226.115394 C691.913953,226.626511 692.676094,226.874763 693.433698,226.874763 C694.065256,226.874763 694.693412,226.701617 695.241579,226.364622 C695.453979,226.9419 695.815487,227.454591 696.30685,227.850378 C696.941464,228.361494 697.703605,228.61 698.461214,228.61 C699.466316,228.61 700.463852,228.172224 701.142324,227.330186 C702.331912,225.853789 702.09853,223.684555 700.621627,222.494465 C699.906864,221.918323 699.013164,221.654699 698.096273,221.753239 C697.577027,221.809129 697.090009,221.981578 696.658717,222.248386 C696.4512,221.683083 696.096655,221.164084 695.594612,220.759482 C694.118715,219.56964 691.949233,219.803781 690.759144,221.279926 C689.570061,222.756571 689.803443,224.925553 691.279841,226.115394 Z M698.26211,223.292898 C698.330662,223.285336 698.399719,223.281811 698.467769,223.281811 C698.897735,223.281811 699.311066,223.42698 699.650302,223.700184 C700.462345,224.354458 700.590378,225.546818 699.93661,226.358356 C699.282842,227.170399 698.090229,227.298432 697.278186,226.644411 C696.885017,226.327861 696.639035,225.876975 696.584596,225.374932 C696.559392,225.140414 696.581571,224.908798 696.640388,224.687391 C696.660394,224.635977 696.675796,224.583493 696.693186,224.531413 C696.763595,224.337414 696.859023,224.151695 696.992378,223.98624 C697.308933,223.593065 697.760067,223.346831 698.26211,223.292898 Z M691.964862,222.251504 C692.33787,221.788271 692.88629,221.547833 693.439247,221.547833 C693.855602,221.547833 694.274476,221.684435 694.623292,221.965195 C695.220953,222.44686 695.444786,223.220088 695.261905,223.918721 C695.239158,223.976562 695.220195,224.035662 695.200694,224.094607 C695.131699,224.280544 695.040653,224.460869 694.909601,224.62362 C694.255832,225.435162 693.063219,225.563444 692.251176,224.909675 C691.439628,224.255654 691.311094,223.063041 691.964862,222.251504 Z" id="Shape" fill-rule="nonzero"></path>
                <path d="M1101.8,363 C1110.18125,363 1117,356.181248 1117,347.8 C1117,347.357816 1116.6418,347 1116.2,347 C1115.7582,347 1115.4,347.357816 1115.4,347.8 C1115.4,355.299216 1109.29922,361.4 1101.8,361.4 C1101.3582,361.4 1101,361.757816 1101,362.2 C1101,362.642184 1101.3582,363 1101.8,363 Z" id="Shape" fill-rule="nonzero" transform="translate(1109.000000, 355.000000) rotate(-315.000000) translate(-1109.000000, -355.000000) "></path>
                <path d="M1131.06905,619.1376 C1132.76109,619.1376 1134.1376,617.760836 1134.1376,616.0688 C1134.1376,614.376764 1132.76109,613 1131.06905,613 C1129.37702,613 1128,614.376764 1128,616.0688 C1128,617.760836 1129.37702,619.1376 1131.06905,619.1376 Z M1131.06905,614.548387 C1131.90726,614.548387 1132.58921,615.230343 1132.58921,616.0688 C1132.58921,616.907257 1131.90726,617.589213 1131.06905,617.589213 C1130.23034,617.589213 1129.54839,616.907257 1129.54839,616.0688 C1129.54839,615.230343 1130.23034,614.548387 1131.06905,614.548387 Z" id="Shape" fill-rule="nonzero"></path>
                <path d="M1119.99998,549.417912 C1119.33229,549.417912 1118.79102,548.876644 1118.79102,548.208956 C1118.79102,547.541268 1119.33229,547 1119.99998,547 C1120.66766,547 1121.20893,547.541268 1121.20893,548.208956 C1121.20893,548.876644 1120.66766,549.417912 1119.99998,549.417912 Z M1112.20896,549.417912 C1111.54127,549.417912 1111,548.876644 1111,548.208956 C1111,547.541268 1111.54127,547 1112.20896,547 C1112.87664,547 1113.41791,547.541268 1113.41791,548.208956 C1113.41791,548.876644 1112.87664,549.417912 1112.20896,549.417912 Z M1127.79104,549.417912 C1127.12336,549.417912 1126.58209,548.876644 1126.58209,548.208956 C1126.58209,547.541268 1127.12336,547 1127.79104,547 C1128.45873,547 1129,547.541268 1129,548.208956 C1129,548.876644 1128.45873,549.417912 1127.79104,549.417912 Z M1119.99998,557.20898 C1119.33229,557.20898 1118.79102,556.667712 1118.79102,556.000024 C1118.79102,555.332336 1119.33229,554.791068 1119.99998,554.791068 C1120.66766,554.791068 1121.20893,555.332336 1121.20893,556.000024 C1121.20893,556.667712 1120.66766,557.20898 1119.99998,557.20898 Z M1112.20896,557.20898 C1111.54127,557.20898 1111,556.667712 1111,556.000024 C1111,555.332336 1111.54127,554.791068 1112.20896,554.791068 C1112.87664,554.791068 1113.41791,555.332336 1113.41791,556.000024 C1113.41791,556.667712 1112.87664,557.20898 1112.20896,557.20898 Z M1127.79104,557.20898 C1127.12336,557.20898 1126.58209,556.667712 1126.58209,556.000024 C1126.58209,555.332336 1127.12336,554.791068 1127.79104,554.791068 C1128.45873,554.791068 1129,555.332336 1129,556.000024 C1129,556.667712 1128.45873,557.20898 1127.79104,557.20898 Z M1119.99998,565 C1119.33229,565 1118.79102,564.458732 1118.79102,563.791044 C1118.79102,563.123356 1119.33229,562.582088 1119.99998,562.582088 C1120.66766,562.582088 1121.20893,563.123356 1121.20893,563.791044 C1121.20893,564.458732 1120.66766,565 1119.99998,565 Z M1112.20896,565 C1111.54127,565 1111,564.458732 1111,563.791044 C1111,563.123356 1111.54127,562.582088 1112.20896,562.582088 C1112.87664,562.582088 1113.41791,563.123356 1113.41791,563.791044 C1113.41791,564.458732 1112.87664,565 1112.20896,565 Z M1127.79104,565 C1127.12336,565 1126.58209,564.458732 1126.58209,563.791044 C1126.58209,563.123356 1127.12336,562.582088 1127.79104,562.582088 C1128.45873,562.582088 1129,563.123356 1129,563.791044 C1129,564.458732 1128.45873,565 1127.79104,565 Z" id="Combined-Shape" fill-rule="nonzero"></path>
                <path d="M0.8,170 C9.181248,170 16,163.181248 16,154.8 C16,154.357816 15.6418,154 15.2,154 C14.7582,154 14.4,154.357816 14.4,154.8 C14.4,162.299216 8.299216,168.4 0.8,168.4 C0.3582,168.4 0,168.757816 0,169.2 C0,169.642184 0.3582,170 0.8,170 Z" id="Shape" fill-rule="nonzero"></path>
                <path d="M13.9503752,535.141565 C14.0062417,535.243883 14.0841518,535.323878 14.1697458,535.392503 L14.0783134,539.680578 C14.0699687,540.152555 14.4459969,540.541656 14.9176953,540.55 L14.9332682,540.55 C15.3977383,540.55 15.7787733,540.17731 15.7871122,539.710618 L15.8610921,535.4845 C16.2805068,534.890422 18.3097122,533.007234 20.0646829,531.503128 C20.422911,531.196078 20.4640704,530.656791 20.157021,530.298563 C19.8499716,529.940614 19.3115159,529.898065 18.9521828,530.205946 C16.9059406,531.959948 15.7505039,533.066154 15.0884618,533.780554 C14.31496,532.737027 12.8168682,531.143646 12.474082,530.782496 C12.1486743,530.439847 11.6079972,530.426216 11.2664584,530.751066 C10.9238089,531.075636 10.9098993,531.616592 11.2347544,531.958968 C12.125315,532.89737 13.6499958,534.591433 13.9503752,535.141565 Z" id="Shape" fill-rule="nonzero"></path>
                <path d="M354.666667,153.333333 L346.666667,153.333333 C346.298,153.333333 346,153.035333 346,152.666667 C346,152.298 346.298,152 346.666667,152 L354.666667,152 C355.035333,152 355.333333,152.298 355.333333,152.666667 C355.333333,153.035333 355.035333,153.333333 354.666667,153.333333 Z M360,157 L352,157 C351.631333,157 351.333333,156.702 351.333333,156.333333 C351.333333,155.964667 351.631333,155.666667 352,155.666667 L360,155.666667 C360.368667,155.666667 360.666667,155.964667 360.666667,156.333333 C360.666667,156.702 360.368667,157 360,157 Z" id="Combined-Shape" fill-rule="nonzero"></path>
                <path d="M276.982546,194.861758 C276.994044,194.877358 276.997825,194.88528 277.028351,194.949241 C277.320852,195.728892 278.078719,196.254147 278.911353,196.254147 C279.743358,196.254147 280.500885,195.73013 280.793196,194.953272 C280.92733,194.593958 281.327853,194.412176 281.687015,194.548505 C282.044217,194.682539 282.225249,195.082568 282.09026,195.440462 C281.595421,196.756734 280.318864,197.639874 278.911353,197.639874 C277.938916,197.639874 277.018886,197.216296 276.380395,196.503878 C275.742077,197.216169 274.82175,197.639874 273.849668,197.639874 C272.860362,197.639874 271.926252,197.201068 271.287301,196.467371 C270.648408,197.200955 269.71403,197.639874 268.724606,197.639874 C267.315353,197.639874 266.038405,196.754962 265.543907,195.435476 C265.410069,195.077651 265.591528,194.678997 265.951092,194.543385 C266.309247,194.410632 266.707328,194.591714 266.841629,194.94962 C267.133849,195.728962 267.891725,196.254147 268.724606,196.254147 C269.556805,196.254147 270.314096,195.730241 270.60675,194.952469 C270.710855,194.67551 270.975923,194.504456 271.263287,194.50839 C271.566975,194.4838 271.856728,194.655947 271.966691,194.94962 C272.258911,195.728962 273.016787,196.254147 273.849668,196.254147 C274.681121,196.254147 275.438599,195.730059 275.731081,194.952745 C275.733506,194.947865 275.735792,194.943267 275.73795,194.93893 C275.766703,194.866172 275.807304,194.802207 275.850701,194.752233 C275.856937,194.744489 275.865494,194.734029 275.877755,194.719041 C275.935042,194.658173 276.000935,194.612134 276.089899,194.568428 C276.055404,194.587181 276.040253,194.595418 276.031356,194.600925 C276.042443,194.593351 276.056476,194.586185 276.11644,194.555569 C276.042025,194.592662 276.042025,194.592662 276.032875,194.601065 C276.050496,194.586308 276.050496,194.586308 276.140041,194.542463 C276.204651,194.519033 276.246033,194.513099 276.318537,194.507952 C276.616802,194.496662 276.854806,194.632635 276.976639,194.851306 C276.981704,194.860571 276.981753,194.860662 276.981802,194.860753 C276.974688,194.849275 276.972361,194.845433 276.971275,194.843719 C276.983597,194.861538 276.98893,194.871783 277.014954,194.921774 C276.993774,194.880806 276.98818,194.869984 276.982546,194.861758 Z" id="Path" fill-rule="nonzero"></path>
                <path d="M31.0690529,378.1376 C32.761089,378.1376 34.1376,376.760836 34.1376,375.0688 C34.1376,373.376764 32.761089,372 31.0690529,372 C29.3770168,372 28,373.376764 28,375.0688 C28,376.760836 29.3770168,378.1376 31.0690529,378.1376 Z M31.0690529,373.548387 C31.9072568,373.548387 32.5892129,374.230343 32.5892129,375.0688 C32.5892129,375.907257 31.9072568,376.589213 31.0690529,376.589213 C30.2303432,376.589213 29.5483871,375.907257 29.5483871,375.0688 C29.5483871,374.230343 30.2303432,373.548387 31.0690529,373.548387 Z" id="Shape" fill-rule="nonzero"></path>
            </g>
        </g>
    </g>
</svg>

<svg width="1135" height="620" viewBox="0 0 1135 620" xmlns="http://www.w3.org/2000/svg"><title>Artboard Copy</title><g fill="#008489" fill-rule="evenodd" fill-opacity=".3"><path d="M852.5 4.5a5.1 5.1 0 0 1 2 2 5.105 5.105 0 0 1 2-2 5.108 5.108 0 0 1-2-2 5.108 5.108 0 0 1-2 2m2 4.5a.695.695 0 0 1-.688-.593 3.838 3.838 0 0 0-3.217-3.218h-.003a.697.697 0 0 1 0-1.377 3.836 3.836 0 0 0 3.22-3.217.697.697 0 0 1 1.376-.002 3.838 3.838 0 0 0 3.217 3.219.696.696 0 0 1 .003 1.377 3.836 3.836 0 0 0-3.219 3.216.697.697 0 0 1-.689.595" fill-rule="nonzero"/><path d="M890.628 155.608l-5.093 2.31a.911.911 0 0 0 .753 1.66l5.06-2.296c1.436.54 4.715 1.744 5.593 1.823a.91.91 0 0 0 .165-1.815c-.422-.038-2.535-.758-4.557-1.506l1.582-3.496a.911.911 0 1 0-1.66-.752l-1.843 4.072z"/><path d="M691.28 226.115a3.42 3.42 0 0 0 2.154.76c.631 0 1.26-.173 1.808-.51a3.423 3.423 0 0 0 3.22 2.245 3.435 3.435 0 0 0 2.68-1.28 3.443 3.443 0 0 0-.52-4.836 3.41 3.41 0 0 0-2.526-.74 3.421 3.421 0 0 0-1.437.494 3.413 3.413 0 0 0-1.064-1.489 3.443 3.443 0 0 0-4.836.52 3.444 3.444 0 0 0 .52 4.836zm6.982-2.822a1.88 1.88 0 0 1 1.388.407c.812.654.94 1.847.287 2.658a1.893 1.893 0 0 1-3.352-.983 1.886 1.886 0 0 1 .055-.688c.02-.051.036-.104.053-.156a1.855 1.855 0 0 1 1.57-1.238zm-6.297-1.041a1.888 1.888 0 0 1 1.474-.704c.417 0 .835.136 1.184.417.598.482.822 1.255.639 1.954a2.817 2.817 0 0 0-.061.176c-.07.186-.16.366-.291.529a1.893 1.893 0 0 1-2.659.286 1.893 1.893 0 0 1-.286-2.658zm406.287 133.314c5.926 5.926 15.57 5.926 21.496 0a.8.8 0 1 0-1.131-1.132c-5.303 5.303-13.93 5.303-19.234 0a.8.8 0 1 0-1.131 1.132zm32.818 263.572a3.072 3.072 0 0 0 3.068-3.07 3.072 3.072 0 0 0-3.069-3.068 3.073 3.073 0 0 0-3.069 3.069 3.073 3.073 0 0 0 3.07 3.069zm0-4.59c.837 0 1.52.682 1.52 1.52a1.522 1.522 0 0 1-3.042.001c0-.839.682-1.52 1.521-1.52zm-11.07-65.13a1.209 1.209 0 1 1 0-2.418 1.209 1.209 0 0 1 0 2.418zm-7.791 0a1.209 1.209 0 1 1 0-2.418 1.209 1.209 0 0 1 0 2.418zm15.582 0a1.209 1.209 0 1 1 0-2.418 1.209 1.209 0 0 1 0 2.418zm-7.791 7.791a1.209 1.209 0 1 1 0-2.418 1.209 1.209 0 0 1 0 2.418zm-7.791 0a1.209 1.209 0 1 1 0-2.418 1.209 1.209 0 0 1 0 2.418zm15.582 0a1.209 1.209 0 1 1 0-2.418 1.209 1.209 0 0 1 0 2.418zM1120 565a1.209 1.209 0 1 1 0-2.418 1.209 1.209 0 0 1 0 2.418zm-7.791 0a1.209 1.209 0 1 1 0-2.418 1.209 1.209 0 0 1 0 2.418zm15.582 0a1.209 1.209 0 1 1 0-2.418 1.209 1.209 0 0 1 0 2.418zM.8 170c8.381 0 15.2-6.819 15.2-15.2a.8.8 0 1 0-1.6 0c0 7.5-6.1 13.6-13.6 13.6a.8.8 0 1 0 0 1.6zm13.15 365.142a.84.84 0 0 0 .22.25l-.092 4.289a.855.855 0 0 0 .84.869h.015a.855.855 0 0 0 .854-.84l.074-4.226c.42-.594 2.449-2.477 4.204-3.98a.854.854 0 1 0-1.113-1.298c-2.046 1.754-3.201 2.86-3.864 3.575-.773-1.044-2.271-2.637-2.614-2.999a.854.854 0 1 0-1.24 1.177c.891.938 2.416 2.632 2.716 3.183zm340.717-381.809h-8a.666.666 0 1 1 0-1.333h8a.666.666 0 1 1 0 1.333zM360 157h-8a.666.666 0 1 1 0-1.333h8a.666.666 0 1 1 0 1.333zm-83.017 37.862a.495.495 0 0 1 .045.087 2.022 2.022 0 0 0 1.883 1.305c.832 0 1.59-.524 1.882-1.3a.692.692 0 1 1 1.297.486 3.41 3.41 0 0 1-3.179 2.2 3.408 3.408 0 0 1-2.53-1.136 3.409 3.409 0 0 1-2.531 1.136c-.99 0-1.924-.439-2.563-1.173a3.409 3.409 0 0 1-2.562 1.173 3.41 3.41 0 0 1-3.181-2.205.694.694 0 0 1 1.298-.485 2.022 2.022 0 0 0 1.883 1.304 2.02 2.02 0 0 0 1.882-1.302.687.687 0 0 1 .656-.444.687.687 0 0 1 .704.442 2.022 2.022 0 0 0 1.883 1.304 2.022 2.022 0 0 0 1.888-1.315.656.656 0 0 1 .113-.187l.027-.033a.702.702 0 0 1 .238-.163c-.074.037-.074.037-.083.045.017-.015.017-.015.107-.059a.57.57 0 0 1 .179-.034c.298-.011.536.125.658.343l.005.01-.01-.017c.012.018.017.028.043.078l-.032-.06zM31.07 378.138a3.072 3.072 0 0 0 3.068-3.07A3.072 3.072 0 0 0 31.069 372 3.073 3.073 0 0 0 28 375.069a3.073 3.073 0 0 0 3.07 3.069zm0-4.59c.837 0 1.52.682 1.52 1.52a1.522 1.522 0 0 1-3.042.001c0-.839.682-1.52 1.521-1.52z" fill-rule="nonzero"/></g></svg>
